assets/skill/herr-git.svg

<svg width="58" height="57" viewBox="0 0 58 57" fill="none" xmlns="http://www.w3.org/2000/svg">
<rect x="0.372559" width="56.7516" height="56.7516" rx="8.25478" fill="url(#paint0_linear_92_654)"/>
<path d="M50.3416 26.3539L30.7471 6.5334C30.479 6.26133 30.1605 6.04546 29.8099 5.89817C29.4592 5.75087 29.0832 5.67505 28.7035 5.67505C28.3237 5.67505 27.9478 5.75087 27.5971 5.89817C27.2464 6.04546 26.9279 6.26133 26.6599 6.5334L22.5903 10.6499L27.7514 15.8705C28.36 15.661 29.0145 15.6287 29.6404 15.7771C30.2663 15.9256 30.8384 16.2489 31.2915 16.7103C31.7446 17.1716 32.0604 17.7524 32.2031 18.3865C32.3457 19.0206 32.3094 19.6825 32.0982 20.2967L37.067 25.3228C37.8097 25.0647 38.6174 25.0718 39.3556 25.343C40.0937 25.6142 40.7177 26.133 41.1236 26.8131C41.5294 27.4931 41.6927 28.2933 41.5861 29.0804C41.4795 29.8674 41.1095 30.5937 40.5377 31.1383C39.966 31.6828 39.227 32.0128 38.444 32.0732C37.661 32.1335 36.8811 31.9206 36.2344 31.47C35.5877 31.0193 35.1132 30.3581 34.8899 29.5965C34.6666 28.8349 34.7081 28.019 35.0074 27.2845L30.3672 22.5909V34.9404C31.0701 35.2927 31.6325 35.8779 31.9606 36.5986C32.2888 37.3194 32.3629 38.1321 32.1707 38.9014C31.9785 39.6707 31.5315 40.3501 30.9042 40.8266C30.2769 41.303 29.5071 41.5477 28.7231 41.5198C27.9392 41.492 27.1883 41.1932 26.5956 40.6734C26.0029 40.1536 25.6042 39.4441 25.4658 38.663C25.3275 37.8819 25.4578 37.0765 25.8352 36.3809C26.2126 35.6852 26.8142 35.1413 27.5398 34.8398V22.3768C27.12 22.2026 26.7384 21.9461 26.4171 21.6221C26.0957 21.298 25.8409 20.9129 25.6674 20.4888C25.4938 20.0647 25.4049 19.6101 25.4058 19.1511C25.4067 18.6921 25.4973 18.2379 25.6725 17.8145L20.5915 12.6717L7.15504 26.268C6.88583 26.5391 6.67221 26.8614 6.52646 27.2163C6.3807 27.5712 6.30566 27.9517 6.30566 28.336C6.30566 28.7203 6.3807 29.1008 6.52646 29.4556C6.67221 29.8105 6.88583 30.1328 7.15504 30.4039L26.7496 50.218C27.0176 50.49 27.3361 50.7059 27.6868 50.8532C28.0375 51.0005 28.4135 51.0763 28.7932 51.0763C29.1729 51.0763 29.5489 51.0005 29.8996 50.8532C30.2503 50.7059 30.5688 50.49 30.8368 50.218L50.3416 30.4834C50.6108 30.2122 50.8245 29.89 50.9702 29.5351C51.116 29.1802 51.191 28.7997 51.191 28.4154C51.191 28.0311 51.116 27.6506 50.9702 27.2957C50.8245 26.9408 50.6108 26.6186 50.3416 26.3474" fill="#F34F29"/>
<path d="M22.7622 10.8342L27.9544 15.9817C28.5667 15.7751 29.2251 15.7432 29.8548 15.8896C30.4845 16.036 31.06 16.3548 31.5158 16.8097C31.9716 17.2646 32.2894 17.8372 32.4329 18.4624C32.5764 19.0876 32.5398 19.7402 32.3274 20.3459L37.3261 25.3015C38.0733 25.047 38.8859 25.0541 39.6284 25.3214C40.371 25.5888 40.9988 26.1004 41.4071 26.7709C41.8154 27.4415 41.9796 28.2304 41.8723 29.0064C41.7651 29.7824 41.3929 30.4986 40.8177 31.0355C40.2425 31.5724 39.4991 31.8978 38.7114 31.9573C37.9236 32.0168 37.1391 31.8069 36.4885 31.3626C35.8378 30.9182 35.3605 30.2663 35.1359 29.5154C34.9112 28.7645 34.953 27.9599 35.2541 27.2358L30.5859 22.6079V34.7843C31.2931 35.1317 31.8588 35.7087 32.189 36.4194C32.5191 37.13 32.5937 37.9313 32.4003 38.6898C32.2069 39.4484 31.7572 40.1183 31.1262 40.5881C30.4951 41.0579 29.7207 41.2991 28.932 41.2716C28.1433 41.2441 27.3879 40.9496 26.7917 40.4371C26.1954 39.9245 25.7943 39.2249 25.6551 38.4548C25.5159 37.6847 25.647 36.8905 26.0267 36.2046C26.4063 35.5187 27.0116 34.9825 27.7415 34.6852V22.3968C27.3192 22.2251 26.9354 21.9721 26.6121 21.6526C26.2888 21.3332 26.0324 20.9534 25.8578 20.5353C25.6832 20.1171 25.5938 19.6689 25.5947 19.2163C25.5956 18.7638 25.6868 18.3159 25.863 17.8984L20.7515 12.8277" fill="white"/>
<defs>
<linearGradient id="paint0_linear_92_654" x1="28.7484" y1="0" x2="28.7484" y2="56.7516" gradientUnits="userSpaceOnUse">
<stop stop-color="#FDFDFD"/>
<stop offset="1" stop-color="#F5F4F4"/>
</linearGradient>
</defs>
</svg>

<svg xmlns="http://www.w3.org/2000/svg" width="58" height="57" fill="none" viewBox="0 0 58 57"><rect width="56.752" height="56.752" x=".373" fill="url(#paint0_linear_92_654)" rx="8.255"/><path fill="#f34f29" d="M50.342 26.354 30.747 6.534a2.9 2.9 0 0 0-2.044-.859 2.86 2.86 0 0 0-2.043.858l-4.07 4.117 5.161 5.22a3.4 3.4 0 0 1 1.89-.093 3.4 3.4 0 0 1 1.65.933c.454.462.77 1.042.912 1.677a3.5 3.5 0 0 1-.105 1.91l4.969 5.026a3.4 3.4 0 0 1 2.289.02c.738.271 1.362.79 1.768 1.47a3.51 3.51 0 0 1-.586 4.325 3.406 3.406 0 0 1-4.303.332 3.47 3.47 0 0 1-1.345-1.873 3.5 3.5 0 0 1 .117-2.312l-4.64-4.694v12.35a3.45 3.45 0 0 1 1.594 1.658c.328.72.402 1.533.21 2.302a3.47 3.47 0 0 1-1.267 1.926 3.405 3.405 0 0 1-4.308-.154 3.48 3.48 0 0 1-1.13-2.01 3.5 3.5 0 0 1 .37-2.282 3.45 3.45 0 0 1 1.704-1.541V22.377a3.4 3.4 0 0 1-1.123-.755 3.51 3.51 0 0 1-.745-3.808l-5.08-5.142L7.155 26.268a2.92 2.92 0 0 0-.85 2.068 2.95 2.95 0 0 0 .85 2.068L26.75 50.218a2.88 2.88 0 0 0 2.043.858 2.86 2.86 0 0 0 2.044-.858l19.505-19.735a2.92 2.92 0 0 0 .849-2.068 2.95 2.95 0 0 0-.85-2.068"/><path fill="#fff" d="m22.762 10.834 5.192 5.148a3.48 3.48 0 0 1 3.562.828 3.4 3.4 0 0 1 .812 3.536l4.998 4.956a3.5 3.5 0 0 1 2.302.02 3.45 3.45 0 0 1 1.78 1.449 3.4 3.4 0 0 1-.59 4.264 3.48 3.48 0 0 1-4.33.327 3.43 3.43 0 0 1-1.352-1.847 3.4 3.4 0 0 1 .118-2.28l-4.668-4.627v12.176a3.44 3.44 0 0 1 1.603 1.635c.33.711.405 1.512.211 2.27a3.42 3.42 0 0 1-1.274 1.9 3.47 3.47 0 0 1-4.334-.152 3.4 3.4 0 0 1-.765-4.233 3.44 3.44 0 0 1 1.714-1.519V22.397a3.46 3.46 0 0 1-1.883-1.862 3.4 3.4 0 0 1 .005-2.637l-5.111-5.07"/><defs><linearGradient id="paint0_linear_92_654" x1="28.748" x2="28.748" y1="0" y2="56.752" gradientUnits="userSpaceOnUse"><stop stop-color="#fdfdfd"/><stop offset="1" stop-color="#f5f4f4"/></linearGradient></defs></svg>
